X: 27993
T: Moving Bog, The
R: reel
M: 4/4
K: Gmajor
BGGF GBAF|D2=CD =FDCE|DGGF GABc|1 dge^c d2=cA:|2 dge^c d2B=c||
dggf gbag|fdde fdcA|dggf gbag|fgaf ~g3f|
defg ~a3g|fde^c defg|gffe fde^c|dfe^c d2=cA||

